src/images/dist/icons/soc-fb-icon.svg

<svg width="7" height="14" viewBox="0 0 7 14" fill="none" xmlns="http://www.w3.org/2000/svg">
<path d="M4.54356 13.9999V7.61386H6.60738L6.91636 5.1251H4.54356V3.5361C4.54356 2.81556 4.73623 2.32448 5.73113 2.32448L7 2.32387V0.0979602C6.78045 0.0677406 6.02729 0 5.15105 0C3.32162 0 2.06915 1.15977 2.06915 3.28975V5.12517H0V7.61392H2.06909V14L4.54356 13.9999Z" fill="white"/>
</svg>

<svg width="7" height="14" fill="none" xmlns="http://www.w3.org/2000/svg"><path d="M4.544 14V7.614h2.063l.31-2.489H4.543V3.536c0-.72.192-1.212 1.187-1.212H7V.098A16.38 16.38 0 005.151 0c-1.83 0-3.082 1.16-3.082 3.29v1.835H0v2.489h2.07V14h2.474z" fill="#fff"/></svg>
